img/footer-tw.svg

<svg width="25" height="25" viewBox="0 0 25 25" fill="none" xmlns="http://www.w3.org/2000/svg">
<g clip-path="url(#clip0_96182_8)">
<path d="M12.5 0C5.59815 0 0 5.59815 0 12.5C0 19.4018 5.59815 25 12.5 25C19.4018 25 25 19.4018 25 12.5C25 5.59815 19.4018 0 12.5 0ZM20.0409 9.15132C20.0409 9.30469 20.0409 9.45807 20.0409 9.58588C20.0409 14.9284 15.9765 20.4499 9.17688 20.4499C7.10633 20.4499 5.08691 19.8619 3.3231 18.7372C3.29754 18.7116 3.27198 18.6605 3.29754 18.635C3.3231 18.5838 3.34867 18.5583 3.39979 18.5838C3.68098 18.6094 3.98773 18.635 4.29447 18.635C5.9049 18.635 7.43864 18.1237 8.74232 17.1779C7.18302 17.0501 5.85378 16.002 5.36809 14.4939C5.36809 14.4683 5.36809 14.4172 5.39366 14.3916C5.41922 14.366 5.44478 14.366 5.47034 14.366C5.9049 14.4427 6.33946 14.4427 6.74846 14.3916C5.13803 13.9059 4.01329 12.3977 4.01329 10.6851V10.6339C4.01329 10.6084 4.03885 10.5828 4.06441 10.5572C4.08998 10.5317 4.11554 10.5317 4.16666 10.5572C4.57566 10.7873 5.03578 10.9407 5.52147 10.9918C4.60122 10.2505 4.06441 9.15132 4.06441 7.94989C4.06441 7.25971 4.24335 6.59509 4.60122 6.00715C4.62678 5.98159 4.65235 5.95603 4.67791 5.95603C4.70347 5.95603 4.72903 5.95603 4.7546 5.98159C6.64621 8.2822 9.40694 9.71369 12.3722 9.89263C12.3211 9.637 12.2955 9.38138 12.2955 9.12576C12.2955 6.97852 14.0337 5.24028 16.181 5.24028C17.229 5.24028 18.2515 5.67484 18.9673 6.41615C19.7853 6.23721 20.5777 5.95603 21.2934 5.52147C21.319 5.4959 21.3701 5.4959 21.3957 5.52147C21.4212 5.54703 21.4468 5.59815 21.4212 5.62372C21.1656 6.39059 20.7055 7.05521 20.0664 7.54089C20.6799 7.43864 21.2679 7.25971 21.8047 7.00408C21.8302 6.97852 21.8814 7.00408 21.9069 7.02964C21.9325 7.05521 21.9325 7.10633 21.9069 7.13189C21.4212 7.97545 20.7822 8.61451 20.0409 9.15132Z" fill="#999999"/>
</g>
<defs>
<clipPath id="clip0_96182_8">
<rect width="25" height="25" fill="white"/>
</clipPath>
</defs>
</svg>

<svg width="25" height="25" fill="none" xmlns="http://www.w3.org/2000/svg"><g clip-path="url(#a)"><path d="M12.5 0C5.598 0 0 5.598 0 12.5S5.598 25 12.5 25 25 19.402 25 12.5 19.402 0 12.5 0Zm7.54 9.151v.435c0 5.342-4.063 10.864-10.863 10.864-2.07 0-4.09-.588-5.854-1.713-.025-.025-.051-.076-.025-.102.025-.051.05-.077.102-.051.281.025.588.051.894.051a7.53 7.53 0 0 0 4.448-1.457 3.872 3.872 0 0 1-3.374-2.684c0-.026 0-.077.026-.102.025-.026.05-.026.076-.026.435.077.87.077 1.278.026a3.874 3.874 0 0 1-2.735-3.707v-.051c0-.026.026-.051.051-.077.026-.025.052-.025.103 0 .409.23.869.384 1.354.435A3.879 3.879 0 0 1 4.064 7.95c0-.69.18-1.355.537-1.943.026-.025.051-.051.077-.051.025 0 .051 0 .077.026 1.891 2.3 4.652 3.732 7.617 3.91a3.884 3.884 0 0 1 3.809-4.652c1.048 0 2.07.435 2.786 1.176.818-.179 1.61-.46 2.326-.895a.078.078 0 0 1 .103 0c.025.026.05.077.025.103a3.953 3.953 0 0 1-1.355 1.917 6.552 6.552 0 0 0 1.739-.537c.025-.025.076 0 .102.026a.078.078 0 0 1 0 .102c-.486.843-1.125 1.483-1.866 2.02Z" fill="#999"/></g><defs><clipPath id="a"><path fill="#fff" d="M0 0h25v25H0z"/></clipPath></defs></svg>
